assets/img/icons/duotone-icons/Weather/Rain#1.svg

<?xml version="1.0" encoding="UTF-8"?>
<svg width="24px" height="24px" viewBox="0 0 24 24" version="1.1" xmlns="http://www.w3.org/2000/svg" xmlns:xlink="http://www.w3.org/1999/xlink">
    <!-- Generator: Sketch 52.2 (67145) - http://www.bohemiancoding.com/sketch -->
    <title>Stockholm-icons / Weather / Rain#1</title>
    <desc>Created with Sketch.</desc>
    <g id="Stockholm-icons-/-Weather-/-Rain#1" stroke="none" stroke-width="1" fill="none" fill-rule="evenodd">
        <polygon id="Shape" points="0 0 24 0 24 24 0 24"></polygon>
        <path d="M5.74714567,14.0425758 C4.09410362,12.9740356 3,11.1147886 3,9 C3,5.6862915 5.6862915,3 9,3 C11.7957591,3 14.1449096,4.91215918 14.8109738,7.5 L17.25,7.5 C19.3210678,7.5 21,9.17893219 21,11.25 C21,13.3210678 19.3210678,15 17.25,15 L8.25,15 C7.28817895,15 6.41093178,14.6378962 5.74714567,14.0425758 Z" id="Combined-Shape" fill="#335EEA"></path>
        <path d="M8.90586666,16.1192596 C9.43933276,16.2622014 9.75591525,16.8105384 9.61297344,17.3440045 L8.57769726,21.2077078 C8.43475545,21.7411739 7.88641849,22.0577564 7.35295239,21.9148146 C6.81948628,21.7718728 6.50290379,21.2235358 6.64584561,20.6900697 L7.68112179,16.8263664 C7.8240636,16.2929003 8.37240055,15.9763178 8.90586666,16.1192596 Z M16.9058667,16.1192596 C17.4393328,16.2622014 17.7559153,16.8105384 17.6129734,17.3440045 L16.5776973,21.2077078 C16.4347554,21.7411739 15.8864185,22.0577564 15.3529524,21.9148146 C14.8194863,21.7718728 14.5029038,21.2235358 14.6458456,20.6900697 L15.6811218,16.8263664 C15.8240636,16.2929003 16.3724006,15.9763178 16.9058667,16.1192596 Z M12.9058667,16.1192596 C13.4393328,16.2622014 13.7559153,16.8105384 13.6129734,17.3440045 L12.5776973,21.2077078 C12.4347554,21.7411739 11.8864185,22.0577564 11.3529524,21.9148146 C10.8194863,21.7718728 10.5029038,21.2235358 10.6458456,20.6900697 L11.6811218,16.8263664 C11.8240636,16.2929003 12.3724006,15.9763178 12.9058667,16.1192596 Z" id="Combined-Shape" fill="#335EEA" opacity="0.3"></path>
    </g>
</svg>

<svg width="24" height="24" viewBox="0 0 24 24" xmlns="http://www.w3.org/2000/svg"><g fill="none" fill-rule="evenodd"><path d="M0 0h24v24H0z"/><path d="M5.747 14.043A6 6 0 1114.811 7.5h2.439a3.75 3.75 0 010 7.5h-9c-.962 0-1.84-.362-2.503-.957z" fill="#335EEA"/><path d="M8.906 16.12a1 1 0 01.707 1.224l-1.035 3.864a1 1 0 11-1.932-.518l1.035-3.864a1 1 0 011.225-.707zm8 0a1 1 0 01.707 1.224l-1.035 3.864a1 1 0 01-1.932-.518l1.035-3.864a1 1 0 011.225-.707zm-4 0a1 1 0 01.707 1.224l-1.035 3.864a1 1 0 01-1.932-.518l1.035-3.864a1 1 0 011.225-.707z" fill="#335EEA" opacity=".3"/></g></svg>
